X:1
T:Salvator mundi - Tallis
T:James Gibb editions
T:#
%%score [ 1 { 2 | 3 } 4 5 ]
L:1/8
Q:1/4=80
M:4/4
K:C
V:1 treble nm="Soprano" snm="S"
V:2 treble nm="Alto I" snm="A"
V:3 treble 
V:4 treble-8 nm="Tenor" snm="T"
V:5 treble nm="Bass" snm="B"
V:1
"^Salvator mundi""^Thomas Tallis\n(1505-1585)" A4 e4- | e2 B2 c2 A2 | e4 d4 | c6 B2- | %4
w: Sal- va\-|* tor mun- di,|sal- va|nos, sal\-|
 B2 (G2 A2 c2- | cB G2 A2 F2) |[M:4/4] E2 E3 (^FGA) | B4 z4 | z4 z2 B2 | e6 B2 | c2 A2 e4 | %11
w: * va\- * *||nos, sal- va\- * *|nos,|Sal-|va- tor|mun- di, sal-|
 d4 c4- | c2 B4 (G2 | A2 c2- cB G2 | A2"^." F2) E2 (E2- | E^FGA B4) | A4 G4 | z8 | G4 A2 c2- | %19
w: va nos,|* sal- va||* * nos, sal\-||va nos,||qui per cru\-|
 c2 B2- BA A2- | A2 D2 A2 A2 | B2 d4 (c2 | B2 A4 ^G2) | A2 A2 B2 d2- | d2 (c2 B2 AG/^F/ | %25
w: * cem * et san\-|* gui- nem re-|de- mis- ti||nos, re- de- mis\-|* ti * * * *|
 GA) B2 z2 B2 | B2 B2 B2 B2 | (G3 A B4) | E2 e2 e2 e2 | e2 e2 (c3 d | e4 A2) (d2 | c2 BA) B2 B2 | %32
w: * * nos: au-|xi- li- a- re|no\- * *|bis, au- xi- li-|a- re no\- *|* bis, no\-|* * * bis, te|
 B2 A2 G2 E2 | ^F4 E3 (F | GA B2- BA A2 | GE B4 ^F2 | G2 A2) B4 | z2 e2 B2 d2 | e2 c2 B4- | %39
w: de- pre- ca- mur,|De- us no\-|||* * ster,|te de- pre-|ca- mur, De\-|
 B2 A2 (G2 ^FE | ^F4 E3 F | GA B2- BA A2- | A2 G4) ^F2- | F(E e4) d2- | d(c c4 B2- | BA A4 ^G2) | %46
w: * us no\- * *|||* * ster,|* De\- * us|* no\- * *||
 A8-[Q:1/4=79][Q:1/4=77][Q:1/4=76] |[Q:1/4=75] A8[Q:1/4=73][Q:1/4=72][Q:1/4=71] | %48
w: ster.||
[Q:1/4=69] !fermata!A8[Q:1/4=68][Q:1/4=68][Q:1/4=68] |] %49
w: |
V:2
 z8 | E4 A4- | A2 E2 F2 D2 | A4 G4- | G2 E2 E3 D | C2 B,2 A,4- |[M:4/4] A,2 E4 E2- | E2 (D2 E4- | %8
w: |Sal- va\-|* tor mun- di,|sal- va\-|||* nos, sal\-|* va *|
 E2 G2 F4) | E4 z2 E2 | A6 E2 | F2 D2 A4 | (G6 E2- | E3 D C2 B,2 | A,6) E2- | E2 E4 D2 | E4 z2 C2 | %17
w: |nos, Sal-|va- tor|mun- di, sal-|va *||* nos,|* sal- va|nos, qui|
 D2 F4 E2- | E2 E2 D2 C2 | G3 F E4 | A,2 D2 C2 A,2 | z2 (B,2 C3) D | E2 A,2 z2 B,2 | (D2 E2) G4 | %24
w: per cru- cem|* et san\- *|* gui- nem,|et san- gui- nem|re\- * de-|mis- ti, re-|de\- * mis-|
 (C3 D E2) A,2 | z2 G,G, D2 B,2 | (B,3 A, ^G,2) E2 | EE E2- E^F G2- | GE (A4 ^G2) | A2 E4 E2 | %30
w: ti * * nos,|re- de- mis- ti|nos: * * au-|xi- li- a\- * * *|* re no\- *|bis, au- xi-|
 E2 C2 C2 A,2- | A,2 E4 E2 | B,2 D2 E2 C2 | B,4 C2 (A,2 | E6 A,2) | B,4 D4 | B,2 (C2 DCB,A, | %37
w: li- a- re no\-|* bis, te|de- pre- ca- mur,|De- us no\-||ster, De-|us no\- * * * *|
 G,2 C2) B,4 | z2 E4 G2- | G2 ^F3 (E E2- | E2) ^D2 E2 C2 | (B,4 C2 D2 | E2) B,2 z2 ^F,2 | %43
w: * * ster,|te de\-|* pre- ca\- *|* mur, De- us|no\- * *|* ster, ~~De-|
"^\" (B,2 C2) (D4 | E2 C2 G4 | E2 ^F2 G=FED) | ^C2 =C2 D2 (F2- | F2 E3 D D2- | %48
w: us * no\-|||ster, De- us no\-||
 D2 ^CB,) !fermata!C4 |] %49
w: * * * ster.|
V:3
 z8 | z8 | z8 | A,4 E4- | E2 B,2 C2 A,2 | E4 D4 |[M:4/4] C4 B,4- | B,4 (G,2 C2 | B,A,B,C D2 B,2 | %9
w: |||Sal- va\-|* tor mun- di,|sal- va|nos, sal\-|* va *||
 C4) B,2 E2 | C2 F2 EDCB, | A,4 z2 A,2 | E6 B,2 | C2 A,2 E4 | D4 C4 | B,6 (D2 | C4) B,2 C2- | %17
w: * nos, sal-|va * * * * *|nos, Sal-|va- tor|mun- di, sal-|va nos,|sal- va|* nos, sal\-|
 C2 B,2 C4- | (C2 B,2 A,4) | E4 z2 C2 | D2 F3 F E2 | D2 B,2 E4 | z2 D2 E2 G2 | (^F2 E2 D2 B,2) | %24
w: * va *||nos, qui|per cru- cem et|san- gui- nem|re- de- mis-|ti * * *|
 E4 z2 D2 | E2 G2 (^F2 E2- | E2 ^D2) E2 B,2- | B,2 B,2 B,2 E2- | E2 E2 E3 D | C3 B, A,2 A2 | %30
w: nos, re-|de- mis- ti *|* * nos: au\-|* xi- li- a\-|* re no\- *|* * bis, au-|
 A2 A2 A2 A2 | A4 ^G2 =G2- | G2 ^F3 E E2- | E2 ^D2 E2 C2 | (B,4 C2 D2) | E4 G2 ^F2- | F(E E4 ^D2 | %37
w: xi- i- a- re|no- bis, te|* de- pre- ca\-|* mur, De- us|no\- * *|ster, De- us|* no\- * *|
 E6 D2) | (C2 B,A,) G,2 E2 | B,2 D2 E2 C2 | B,4 C2 (A,2 | E6 A,2 | B,4) D2 D2- | D(C A,2) (B,4- | %44
w: |* * * ster, te|de- pre- ca- mur,|De- us no\-||* ster, De\-|* us * no\-|
 B,2 A,2 G,2 B,2 | C2 D2) E4 | z2 E2 A,2 (D2 | C3 B,) A,4- | !fermata!A,8 |] %49
w: |* * ster,|De- us no\-|* * ster.||
V:4
 z8 | z8 | z8 | z8 | E4 A4- | A2 E2 F2 D2 |[M:4/4][K:treble-8] A4 (G4- | G2 ^F2 E2 A2- | %8
w: ||||Sal- va\-|* tor mun- di,|sal- va||
 A2 G2 A2 =F2) | G4 G4 | (A2 c2- cBAG | F4) E4 | z4 E4 | A6 E2 | F2 D2 A4 | (G6 ^F2) | E6 G2 | %17
w: |nos, sal-|va * * * * *|* nos,|sal-|va- tor|mun- di, sal-|va *|nos, sal-|
 (F2 D2) G4 | z8 | G4 A2 c2- | c2 B3 A A2- | A2 ^G2 A2 A2 | B2 d2 (c2 B2- | BA A4 ^G2) | %24
w: va * nos,||qui per cru\-|* cem et san\-|* gui- nem re-|de- mis- ti *||
 A2 A2 B2 d2 | (c2 B2- BA G2 | ^F4) E2 G2 | G2 E(^F G)(A B2) | (c4 B4) | A2 c2 c2 A(B | %30
w: nos, re- de- mis-|ti * * * *|* nos: au-|xi- li- a\- * re *|no\- *|bis, au- xi- li- a\-|
 c)(d e2) (f4 | e2 dc B4) | z8 | z4 z2 A2 | E2 G2 A2 ^F2 | (E^FGA B3 A | G2) E2 ^F4 | %37
w: * re * no\-|* * * bis,||te|de- pre- ca- mur,|De\- * * * * *|* us no-|
 E2 A2 G2 ^F2 | E4 z4 | z8 | z4 z2 A2 | E2 G2 A2 ^F2 | (E^FGA B3 A) | G2 E2 ^F4 | E2 e4 d2 | %45
w: ster, De- us no-|ster,||te|de- pre- ca- mur,|De\- * * * * *|* us no-|ster, De- us|
 (c2 A2 B4) | A3 G F2 (D2 | A3 G F4) | !fermata!E8 |] %49
w: no\- * *|ster, De- us no\-||ster.|
V:5
 z8 | z8 | z8 | z8 | z8 | z8 |[M:4/4][K:bass] A,,4 E,4- | E,2 B,,2 C,2 A,,2 | E,4 D,4 | %9
w: ||||||Sal- va\-|* tor mun- di,|sal- va|
 C,4 (E,2 G,2 | F,3) (E, C,4 | D,4) A,,4 | z8 | z8 | z4 A,,4 | E,6 B,,2 | C,2 A,,2 E,4 | D,4 C,4 | %18
w: nos, sal\- *|* va *|* nos,|||Sal-|va- tor|mun- di, sal-|va nos,|
 E,2 (G,2 F,4) | E,4 C,2 A,,2 | D,4 A,,2 C,2 | B,,3 B,, A,,2 A,2 | G,2 F,2 E,2 E,2 | D,2 C,2 B,,4 | %24
w: sal- va *|nos, qui per|cru- cem et|san- gui- nem re-|de- mis- ti, re-|de- mis- ti|
 A,,2 A,2 G,2 F,2 | (E,4 D,2 E,2) | B,,4 z2 E,2 | E,2 E,2 E,2 E,2 | (C,3 D, E,4) | %29
w: nos, re- de- mis-|ti * *|nos: au-|xi- li- a- re|no\- * *|
 A,,2 A,2 A,2 A,2 | A,2 A,2 (F,3 G, | A,4 E,4) | z8 | z8 | z8 | z2 E,2 B,,2 D,2 | E,2 C,2 B,,4 | %37
w: bis, au- xi- li-|a- re no\- *|* bis,||||te de- pre-|ca- mur, De-|
 C,2 (A,,2 E,2 B,,2 | C,3 D,) E,4 | z8 | z8 | z8 | z2 E,2 B,,2 D,2 | (E,2 C,2 B,,4) | %44
w: us no\- * *|* * ster,||||te de- pre-|ca\- * *|
 E,2 A,2 E,2 (G,2 | A,2 ^F,2 E,4) | A,,4 z2 D,2 | A,,2 (^C,2 D,4) | !fermata!A,,8 |] %49
w: mur, De- us no\-||ster, De-|us no\- *|ster.|

